X:0192
T:A Trumpet Air
M:6/8
L:1/8
Q:3/8=120
I: :: ::
Z:Jack Campin * www.campin.me.uk * 2009
K:G
D|GDG BGB|d3 c3 | B>cd    d>cB|AAA  A2
D|GDG BGB|d3 c3 |(B/c/d)B AGA |GGG  G2:|
d|dBd dBd|e3 c2A| B>cd    d>cB|A>AA A2
D|GDG BGB|d3 c3 |(B/c/d)B AGA |GGG  G2:|
<end>
<start>
